X:32
T:Miss Farquharson of Invercauld's Jigg
C:Robert Petrie
S:Petrie's Collection of Strathspey Reels and Country Dances &c., 1790
Z:Steve Wyrick , 3/19/04
N:Petrie's First Collection, page 14
L:1/8
M:6/8
R:Jig
K:Cm
C2c c2G|BGB FDB,| C2c c2G|cde edc |
C2c c2G|BGB FDB,| E3 TFEF|GEC C3 :|
g2c cde|dcB fdB |Tgfg cdc|gaf gec |
g2c cde|dcB fdB | efg fed|ecc c2f |
g2c cde|dcB fdB |Tgfg cdc|gaf gec |
gbg fge|dfb fdB | EFG DEF|GEC C3 |]
